X:27
T:Paddy's Trip to Scotland
M:4/4
L:1/8
R:reel
D:Altan: Best Of (Live CD)
K:D
|:"D"dAAA "G"BAGF|GABd "A"cABc|"D"d2ed "A"cABc|dfec dB"G"Ac|
"D"dAAA "G"BAGF|GABd "A"cABc|"D"d2ed "A"cABc|"D"dfec d4:|
|:"D"Adfd Adfd|"G"Adfd edcB|"A"Acec Acec|"G"Acec "A"edcB|
"D"Adfd Adfd|"G"Adfd edcB|"D"aAAA "G"dcBA|"A"(3Bcd fc "D"d4:|
